public/figma-home/vector6.svg

<svg preserveAspectRatio="none" width="100%" height="100%" overflow="visible" style="display: block;" viewBox="0 0 18 18" fill="none" xmlns="http://www.w3.org/2000/svg">
<path id="Vector" d="M14.7647 18H15.0975C15.3763 17.991 15.6371 17.8471 15.799 17.6132L17.8406 14.6714C17.9755 14.4735 18.0294 14.2306 17.9845 13.9877C17.9624 13.8693 17.9168 13.7566 17.8504 13.6561C17.784 13.5557 17.698 13.4696 17.5977 13.403L13.1818 10.4612C12.8131 10.2183 12.3184 10.2723 12.0217 10.5962L10.3309 12.4224C9.64733 12.0176 8.50514 11.2889 7.60578 10.3893C6.70641 9.48966 5.97792 8.34715 5.57321 7.67244L7.39892 5.98117C7.72269 5.68429 7.78565 5.18951 7.53383 4.82066L4.5929 0.403564C4.458 0.205649 4.25114 0.0617104 4.01731 0.0167297C3.77448 -0.0282509 3.53165 0.0167298 3.33379 0.160668L0.392866 2.19379C0.159031 2.35572 0.0151326 2.61661 0.00613894 2.89549C-0.020842 3.53422 -0.137759 9.22877 4.3141 13.6729C8.32527 17.6851 13.3437 17.991 14.7647 17.991V18Z" fill="var(--fill-0, white)"/>
</svg>

<svg xmlns="http://www.w3.org/2000/svg" fill="none" overflow="visible" preserveAspectRatio="none" style="display:block" viewBox="0 0 18 18"><path fill="var(--fill-0, white)" d="M14.765 18h.332a.9.9 0 0 0 .702-.387l2.042-2.942a.91.91 0 0 0 .01-1.015.9.9 0 0 0-.253-.253l-4.416-2.942a.9.9 0 0 0-1.16.135l-1.691 1.826c-.684-.404-1.826-1.133-2.725-2.033-.9-.9-1.628-2.042-2.033-2.717L7.4 5.982a.89.89 0 0 0 .135-1.161L4.593.404a.9.9 0 0 0-.576-.387.87.87 0 0 0-.683.144L.393 2.194a.9.9 0 0 0-.387.701c-.027.64-.144 6.334 4.308 10.778 4.011 4.012 9.03 4.318 10.45 4.318z"/></svg>
